modules/hawcons-filled/icons/icon-11-two-fingers-swipe-down.svg

<?xml version="1.0" encoding="UTF-8" standalone="no"?>
<svg width="32px" height="32px" viewBox="0 0 32 32" version="1.1" xmlns="http://www.w3.org/2000/svg" xmlns:xlink="http://www.w3.org/1999/xlink" xmlns:sketch="http://www.bohemiancoding.com/sketch/ns">
    <!-- Generator: Sketch 3.0.3 (7891) - http://www.bohemiancoding.com/sketch -->
    <title>icon 11 two fingers swipe down</title>
    <desc>Created with Sketch.</desc>
    <defs></defs>
    <g id="Page-1" stroke="none" stroke-width="1" fill="none" fill-rule="evenodd" sketch:type="MSPage">
        <g id="icon-11-two-fingers-swipe-down" sketch:type="MSArtboardGroup" fill="#929292">
            <path d="M20.1151466,15.5 L20.1151466,13.5082011 L20.1151466,12.4912653 C20.1151466,11.6625444 20.7867195,11 21.6151466,11 C22.4493494,11 23.1151466,11.6676622 23.1151466,12.4912653 L23.1151466,13.6781559 L23.1151466,16 L24.1151466,16 L24.1151466,15.7497253 L24.1151466,13.5063976 C24.1151466,12.6764628 24.7867195,12 25.6151466,12 C26.4493494,12 27.1151466,12.6744372 27.1151466,13.5063976 L27.1151466,18.2468012 L27.1151466,21.5 C27.1151466,25.6421358 23.7572825,29 19.6151466,29 C15.8554315,28.9995418 13.6251425,26.9488875 11.8625221,23.9830936 C7.95050863,17.4007216 5.14900956,14.3887562 6.23617935,13.2957153 C7.34677642,12.1791206 10.056747,14.5979243 12.1151466,16.7983451 L12.1151466,6.50863659 C12.1151466,5.66642015 12.7867195,5 13.6151466,5 C14.4493494,5 15.1151466,5.67543961 15.1151466,6.50863659 L15.1151466,13.5 L15.1151466,16 L16.1151466,16 L16.1151466,13.4325233 L16.1151466,4.49089813 C16.1151466,3.67622006 16.7867195,3 17.6151466,3 C18.4493494,3 19.1151466,3.66749783 19.1151466,4.49089813 L19.1151466,13.5082011 L19.1151466,16 L19.1151466,24.049999 L19.1151466,24.049999 L15.8651466,20.799999 L15.1151466,21.549999 L19.6151466,26.049999 L24.1151466,21.549999 L23.3651466,20.799999 L20.1151466,24.049999 L20.1151466,15.5 L20.1151466,15.5 Z" id="two-fingers-swipe-down" sketch:type="MSShapeGroup"></path>
        </g>
    </g>
</svg>

<svg width="32" height="32" xmlns="http://www.w3.org/2000/svg"><path d="M20.115 15.5v-3.009c0-.828.672-1.491 1.5-1.491.834 0 1.5.668 1.5 1.491V16h1v-2.494a1.5 1.5 0 1 1 3 0V21.5a7.5 7.5 0 0 1-7.5 7.5c-3.76 0-5.99-2.051-7.752-5.017-3.912-6.582-6.714-9.594-5.627-10.687 1.11-1.117 3.82 1.302 5.88 3.502V6.508a1.5 1.5 0 0 1 3 0V16h1V4.491a1.501 1.501 0 0 1 3 0V24.05l-3.25-3.25-.75.75 4.5 4.5 4.5-4.5-.75-.75-3.25 3.25V15.5z" fill="#929292" fill-rule="evenodd"/></svg>
